src/assets/outline/DocumentFavorite.svg

<svg width="24" height="24" viewBox="0 0 24 24"  xmlns="http://www.w3.org/2000/svg">
<path d="M15 22.75H9C3.57 22.75 1.25 20.43 1.25 15V9C1.25 3.57 3.57 1.25 9 1.25H14C14.41 1.25 14.75 1.59 14.75 2C14.75 2.41 14.41 2.75 14 2.75H9C4.39 2.75 2.75 4.39 2.75 9V15C2.75 19.61 4.39 21.25 9 21.25H15C19.61 21.25 21.25 19.61 21.25 15V10C21.25 9.59 21.59 9.25 22 9.25C22.41 9.25 22.75 9.59 22.75 10V15C22.75 20.43 20.43 22.75 15 22.75Z" />
<path d="M22 10.7505H18C14.58 10.7505 13.25 9.42048 13.25 6.00048V2.00048C13.25 1.70048 13.43 1.42048 13.71 1.31048C13.99 1.19048 14.31 1.26048 14.53 1.47048L22.53 9.47048C22.74 9.68048 22.81 10.0105 22.69 10.2905C22.57 10.5705 22.3 10.7505 22 10.7505ZM14.75 3.81048V6.00048C14.75 8.58048 15.42 9.25048 18 9.25048H20.19L14.75 3.81048Z" />
<path d="M9.41987 18.9496C8.54987 18.9496 6.52987 17.8896 5.90987 15.9496C5.47987 14.6096 5.97987 12.8596 7.52987 12.3596C8.17987 12.1496 8.86987 12.2396 9.41987 12.5796C9.95987 12.2396 10.6599 12.1496 11.3199 12.3596C12.8699 12.8596 13.3699 14.6096 12.9399 15.9496C12.3099 17.9296 10.1899 18.9496 9.41987 18.9496ZM7.32987 15.4996C7.74987 16.8096 9.16987 17.4296 9.42987 17.4496C9.70987 17.4196 11.1099 16.7296 11.4999 15.4996C11.7099 14.8396 11.4999 13.9996 10.8499 13.7896C10.5799 13.6996 10.2099 13.7496 10.0399 14.0096C9.89987 14.2196 9.67987 14.3396 9.42987 14.3496C9.15987 14.3496 8.94987 14.2396 8.80987 14.0396C8.59987 13.7496 8.23987 13.7096 7.97987 13.7996C7.33987 13.9996 7.11987 14.8396 7.32987 15.4996Z" />
</svg>

<?xml version="1.0" encoding="UTF-8"?>
<svg width="24" height="24" viewBox="0 0 24 24" xmlns="http://www.w3.org/2000/svg">
 <path d="m15 22.75h-6c-5.43 0-7.75-2.32-7.75-7.75v-6c0-5.43 2.32-7.75 7.75-7.75h5c0.41 0 0.75 0.34 0.75 0.75s-0.34 0.75-0.75 0.75h-5c-4.61 0-6.25 1.64-6.25 6.25v6c0 4.61 1.64 6.25 6.25 6.25h6c4.61 0 6.25-1.64 6.25-6.25v-5c0-0.41 0.34-0.75 0.75-0.75s0.75 0.34 0.75 0.75v5c0 5.43-2.32 7.75-7.75 7.75z"/>
 <path d="m22 10.75h-4c-3.42 0-4.75-1.33-4.75-4.75v-4c0-0.3 0.18-0.58 0.46-0.69 0.28-0.12 0.6-0.05 0.82 0.16l8 8c0.21 0.21 0.28 0.54002 0.16 0.82002s-0.39 0.46-0.69 0.46zm-7.25-6.94v2.19c0 2.58 0.67 3.25 3.25 3.25h2.19l-5.44-5.44z"/>
 <path d="m9.4199 18.95c-0.87 0-2.89-1.06-3.51-3-0.43-1.34 0.07-3.09 1.62-3.59 0.65-0.21 1.34-0.12 1.89 0.22 0.54-0.34 1.24-0.43 1.9-0.22 1.55 0.5 2.05 2.25 1.62 3.59-0.63 1.98-2.75 3-3.52 3zm-2.09-3.45c0.42 1.31 1.84 1.93 2.1 1.95 0.28-0.03 1.68-0.72 2.07-1.95 0.21-0.66 0-1.5-0.65-1.71-0.27-0.09-0.64-0.04-0.81 0.22-0.14003 0.21-0.36003 0.33-0.61003 0.34-0.27 0-0.48-0.11-0.62-0.31-0.21-0.29-0.57-0.33-0.83-0.24-0.64 0.2-0.86 1.04-0.65 1.7z"/>
</svg>
